!!!OTL: Die verlorene Ehre (25a), S. 101
!!!id: T0146
**kern
*clefG2
*k[f#]
*D:
{4a
=1
4d
4f#
4f#
4a
=2
4.e
8f#
4e}
=3
{8e
8f#
=4
4g
4b
4b
8a
8g
=5
2a}
4r
=6
{8d
8d
=7
4d
4f#
8f#
8e}
=8
{8d
8d
=9
4f#
8a
8dd
8dd
8b
8b
8b
=10
4a
8a
8g
4f#}
==
*-
!!!minrhy: 8
!!!meters: 4/4 ]  ZZ[4
!!!cut: Die verlorene Ehre (25a), S. 101
!!!reg: Luxemburg
!!!trd: Singendes Volk, Esch-Alzette 1937 posth.
!!!rhy1: X_  X_X_X_X_  X_.XX_
!!!rhy2: XX  X_X_X_XX  X__0_
!!!key: T0146  08  D 4/4 ]  ZZ[4
!!!mod: SECHSTONSKALA DUR ?]  AMBITUS[8
!!!kad: 2523
!!!akz: 1322_465_13_3+153_
!!!fot: 'a__as'b__c__
!!!for: 'a__b__c__d__
!!!fok: 'Sd_/__/__^a_
!! PHRAS[AUFTAKTIG]
!!!fkt: Liebeslieder
!!!bem: StraPen, fff Witry, 17.1.1933
!! THILL, Mathias:
!! PR[33] 2K[3] 2G[8] 3K[8] 3G[10] 4A[3] 4Ü[0] 5A[0] 6K[0] 6G[0]
!! 7K[0] 7G[0] 8A[0] MEHR[0] SI[31] ABS[39] SR[10] SP[21]
!! ST[8] 2k[5] 2g[21] 3k[3] 3g[3] 4d[3] 4ü[0] 5d[3] 6k[0] 6g[0]
!! 7k[0] 7g[0] 8d[0] mehr[0] si[36] dm[-5] sr[26] sp[10]
!! 1F[51] 2F[44] 3F[2] 4F[0] LF[0] 2P[2] 3P[0] 4P[0] TRI[0] DF[4] AB[41]
!! TF[0] U3K[0] U3[0] U4[0] U4Ü[0] U5[0] U6K[0] U6[0] U7K[0] U7[0]
!! N1[15] N2K[0] N2[10] N3K[0] N3[25] N4[10] N4Ü[0] N5[23] N6K[0] N6[13]
!!!n7k: 0] N7[0] O1[5] O2K[0] O2[0] O3K[0] O3[0] HÖ[0
